!!!!SEGMENT: pl-kk--kk-i-1--002-004_ruffo-vincenzo--missa-alma-redemptoris-mater-sanctus.krn
!!!cenid: 15xx:661
!!!COM: Ruffo, Vincenzo
!!!COM-rismID: pe30002765
!!!CDT: ~1508-1587
!!!CNT: Italian
!!!OPR: Missa Alma redemptoris mater
!!!OTL: Sanctus
!!!OMV: 004
!!!PDT:
!!!AGN:
!!!SMS-siglum: PL-Kk
!!!SMS-shelfmark: Kk.I.1
!!!SMS-shelfwork: 002-004 M
!!!SMS-variant:
!!!SMS-altvar:
!!!NIFC-rismSourceID: 300257956
!!!NIFC-islandoraID: pl-kk:1
!!!URL-pdf-islandora: https://repozytorium.nifc.pl/islandora/object/pl-kk%3A1/datastream/PDF/view
!!!URL-scan: https://polish.musicsources.pl/pl/lokalizacje/galeria/rekopisy/5736 @EN{Scan on Polish Music Sources Website} @PL{Skany w portalu Dziedzictwo Muzyki Polskiej w otwartym dostępie}
!!!ONB-nifc: UWAGA: Cantus (s. 2r-11v, skan 0004-0014), Altus (s. 1r-12r, skan 0193-0204), Tenor (s. 2r-12r, skan 0390-0400), Bassus (s. 2r-12r, skan 0563-0573). Części Mszy: 1. Kyrie, 2. Et in terra, 3. Patrem, 4. Sanctus, 5. Agnus Dei
!!!AIN: 3 empty 1 tenor
!!!key: F:lyd
**kern	**text	**kern	**text	**kern	**text	**kern	**text
*part4	*part4	*part3	*part3	*part2	*part2	*part1	*part1
*staff4	*staff4	*staff3	*staff3	*staff2	*staff2	*staff1	*staff1
*Iempty	*	*Itenor	*	*Iempty	*	*Iempty	*
*I"BASSVS	*	*I"TENOR	*	*I"ALTVS	*	*I"CANTVS	*
*I'B	*	*I'T	*	*I'A	*	*I'C	*
*ICvox	*	*ICvox	*	*ICvox	*	*ICvox	*
*clefF3	*	*clefC3	*	*clefC3	*	*clefC3	*
*k[b-B-]	*	*k[b-]	*	*k[b-]	*	*k[b-]	*
*F:lyd	*	*F:lyd	*	*F:lyd	*	*F:lyd	*
*M2/1	*	*M2/1	*	*M2/1	*	*M2/1	*
*met(C|)	*	*met(C|)	*	*met(C|)	*	*met(C|)	*
=1-	=1-	=1-	=1-	=1-	=1-	=1-	=1-
*2\right	*	*2\right	*	*2\right	*	*2\right	*
*4\right	*	*4\right	*	*4\right	*	*4\right	*
0r	.	0r	.	0r	.	0F	Sanc-
=2-	=2-	=2-	=2-	=2-	=2-	=2-	=2-
*	*	*	*	*	*	*lig	*
!	!	!	!	!LO:TX:t=P:problem=kreska pseudotaktowa	!	!	!
0r	.	0r	.	0r	.	1A	-tus,
.	.	.	.	.	.	1B-	.
*	*	*	*	*	*	*Xlig	*
=3-	=3-	=3-	=3-	=3-	=3-	=3-	=3-
!LO:TX:t=P:problem=kreska pseudotaktowa	!	!LO:TX:t=P:problem=kreska pseudotaktowa	!	!	!	!LO:TX:t=P:problem=kreska pseudotaktowa	!
1r	.	0r	.	0F	Sanc-	1c	.
0F	SAnc-	.	.	.	.	2r	.
.	.	.	.	.	.	2c/	sanc-
=4-	=4-	=4-	=4-	=4-	=4-	=4-	=4-
*	*	*	*	*lig	*	*	*
.	.	0F	Sanc-	1A	.	2d/	.
.	.	.	.	.	.	1f	-tus,
*lig	*	*	*	*	*	*	*
1D	-tus;	.	.	1B-	.	.	.
.	.	.	.	.	.	4e/	.
!	!	!	!	!	!	!LO:TX:t=P:problem=kreska pseudotaktowa	!
.	.	.	.	.	.	4d/	.
*	*	*	*	*Xlig	*	*	*
=5-	=5-	=5-	=5-	=5-	=5-	=5-	=5-
!LO:TX:t=P:problem=kreska pseudotaktowa	!	!	!	!	!	!	!
*	*	*lig	*	*	*	*	*
!	!	!	!	!LO:TX:t=P:problem=kreska pseudotaktowa	!	!	!
1C	.	1G	-tus,-	1c	-tus,	1e	.
*Xlig	*	*col	*	*	*	*	*
2r	.	2.A/	.	2r	.	2.f\	.
*	*	*	*	*	*ij	*	*
1F\	ſanc-	.	.	2c/	Sanc-	.	.
*	*	*Xlig	*	*	*	*	*
!	!	!LO:TX:t=P:problem=kreska pseudotaktowa	!	!	!	!	!
.	.	4B-/	.	.	.	4g\	.
*	*	*Xcol	*	*	*	*	*
=6-	=6-	=6-	=6-	=6-	=6-	=6-	=6-
!	!	!	!	!	!	!LO:TX:t=P:problem=kreska pseudotaktowa	!
.	.	2c/	.	1f	.	0a	.
!LO:TX:t=P:problem=kreska pseudotaktowa	!	!	!	!	!	!	!
2F/	-tus;	2d/	.	.	.	.	.
*	*	*	*	*2\right	*	*	*
1A	.	2c/	.	2e\	.	.	.
!	!	!	!	!LO:TX:t=P:problem=kreska pseudotaktowa	!	!	!
*	*	*	*ij	*	*	*	*
.	.	1f\	-Sanc-	2c/	.	.	.
=7-	=7-	=7-	=7-	=7-	=7-	=7-	=7-
1B-	.	.	.	2.d/	.	0r	.
.	.	4e\	.	.	.	.	.
!	!	!LO:TX:t=P:problem=kreska pseudotaktowa	!	!	!	!	!
.	.	4d\	.	8c/L	.	.	.
!	!	!	!	!LO:TX:t=P:problem=kreska pseudotaktowa	!	!	!
.	.	.	.	8B-/J	.	.	.
*2\right	*ij	*2\right	*	*	*	*	*
1.c	ſanc-	2.e\	.	4A/	.	.	.
.	.	.	.	4G/	.	.	.
.	.	.	.	4A/	.	.	.
!	!	!	!	!LO:TX:t=P:problem=kreska pseudotaktowa	!	!	!
.	.	4d\	.	4B-/	.	.	.
=8-	=8-	=8-	=8-	=8-	=8-	=8-	=8-
.	.	2e\	.	2c/	.	1.a	do-
!LO:TX:t=P:problem=kreska pseudotaktowa	!	!	!	!	!	!	!
2B-\	.	2.f\	.	2.d/	.	.	.
1A	-tus	.	.	.	.	.	.
*	*Xij	*	*	*	*	*	*
.	.	4e\	.	4c/	.	.	.
*	*	*	*	*custos:B-	*	*custos:g	*
!	!	!	!	!LO:TX:t=P:problem=kreska pseudotaktowa	!	!LO:TX:t=P:problem=kreska pseudotaktowa	!
.	.	4d/	.	1c\	.	2f\	-mi-
.	.	4c/	.	.	.	.	.
!	!	!	!	!LO:PB:g=original	!	!LO:LB:g=original	!
*	*	*	*	*	*	*clefC2	*
=9-	=9-	=9-	=9-	=9-	=9-	=9-	=9-
*	*	*custos:c	*	*	*	*	*
!LO:TX:t=P:problem=kreska pseudotaktowa	!	!LO:TX:t=P:problem=kreska pseudotaktowa	!	!	!	!	!
1G	.	1d	.	.	.	2.g\	-nus
!	!	!	!	!LO:TX:t=P:problem=kreska pseudotaktowa	!	!	!
.	.	.	.	2B-/	.	.	.
!	!	!	!	!	!	!LO:TX:t=P:problem=kreska pseudotaktowa	!
.	.	.	.	.	.	4f\	.
!	!	!LO:LB:g=original	!	!	!	!	!
2r	.	2.c/	.	1.c	.	4e/	de-
.	.	.	.	.	.	4d/	.
*	*ij	*	*	*	*	*	*
1F\	ſanc-	.	.	.	.	1a\	-us
!	!	!LO:TX:t=P:problem=kreska pseudotaktowa	!	!	!	!	!
.	.	4B-/	.	.	.	.	.
=10-	=10-	=10-	=10-	=10-	=10-	=10-	=10-
.	.	4A/	.	.	.	.	.
.	.	4G/	.	.	.	.	.
!LO:TX:t=P:problem=kreska pseudotaktowa	!	!	!	!LO:TX:t=P:problem=kreska pseudotaktowa	!	!	!
2E/	.	2.c/	.	2G/	.	1g	.
1D	-tus	.	.	2A/	.	.	.
*	*Xij	*	*	*	*	*	*
.	.	8B-/L	.	.	.	.	.
.	.	8A/J	.	.	.	.	.
.	.	2B-/	.	4G/	.	1f\	.
.	.	.	.	4F/	.	.	.
=11-	=11-	=11-	=11-	=11-	=11-	=11-	=11-
!LO:TX:t=P:problem=kreska pseudotaktowa	!	!LO:TX:t=P:problem=kreska pseudotaktowa	!	!	!	!	!
1C	.	1c	-tus	1G	-tus	.	.
*	*	*	*Xij	*	*Xij	*	*
.	.	.	.	.	.	2e\	.
!	!	!	!	!LO:TX:t=P:problem=kreska pseudotaktowa	!	!LO:TX:t=P:problem=kreska pseudotaktowa	!
2r	.	2r	.	0F	.	0f	.
1F\	do-	1c\	sanc-	.	.	.	.
=12-	=12-	=12-	=12-	=12-	=12-	=12-	=12-
.	.	.	.	.	.	.	.
*custos:G	*	*	*	*	*	*	*
!LO:TX:t=P:problem=kreska pseudotaktowa	!	!LO:TX:t=P:problem=kreska pseudotaktowa	!	!	!	!	!
2F/	-mi-	2A/	.	.	.	.	.
!LO:LB:g=original	!	!	!	!	!	!	!
1G	-nus	1B-	-tus,	1r	.	1r	.
=13-	=13-	=13-	=13-	=13-	=13-	=13-	=13-
2.A\	de-	2.c/	.	1.F	do-	2r	.
*	*	*	*	*	*	*	*ij
.	.	.	.	.	.	1c	do-
!LO:TX:t=P:problem=kreska pseudotaktowa	!	!LO:TX:t=P:problem=kreska pseudotaktowa	!	!	!	!	!
4G\	.	4B-/	.	.	.	.	.
2F/	-us,	2A/	.	.	.	.	.
!	!	!	!	!LO:TX:t=P:problem=kreska pseudotaktowa	!	!LO:TX:t=P:problem=kreska pseudotaktowa	!
2E/	.	1G/	.	2G/	-mi-	2c/	-mi-
=14-	=14-	=14-	=14-	=14-	=14-	=14-	=14-
1D	.	.	.	2A/	-nus	1d	-nus
.	.	2F/	.	2B-/	.	.	.
!LO:TX:t=P:problem=kreska pseudotaktowa	!	!LO:TX:t=P:problem=kreska pseudotaktowa	!	!	!	!	!
1C	.	1G	.	2.c/	.	1e	de-
!	!	!	!	!LO:TX:t=P:problem=kreska pseudotaktowa	!	!	!
.	.	.	.	4d\	.	.	.
=15-	=15-	=15-	=15-	=15-	=15-	=15-	=15-
!	!	!	!	!	!	!LO:TX:t=P:problem=kreska pseudotaktowa	!
0r	.	2r	.	2e\	.	1c	-us
*	*	*	*	*	*	*	*Xij
.	.	2F/	do-	1f	de-	.	.
.	.	2A/	-mi-	.	.	2r	.
*	*	*custos:c	*	*	*	*	*
!	!	!LO:TX:t=P:problem=kreska pseudotaktowa	!	!	!	!	!
.	.	2B-/	-nuſ	4e\	-us	1g\	do-
!	!	!	!	!LO:TX:t=P:problem=kreska pseudotaktowa	!	!	!
.	.	.	.	4d\	.	.	.
!	!	!LO:LB:g=original	!	!	!	!	!
=16-	=16-	=16-	=16-	=16-	=16-	=16-	=16-
2r	.	1c	de-	1e	.	.	.
!	!	!	!	!	!	!LO:TX:t=P:problem=kreska pseudotaktowa	!
1C	do-	.	.	.	.	2g\	-mi-
*	*	*	*	*custos:f	*	*	*
!	!	!	!	!LO:TX:t=P:problem=kreska pseudotaktowa	!	!	!
.	.	2G/	-us	1e	.	1g	-nus
!LO:TX:t=P:problem=kreska pseudotaktowa	!	!	!	!	!	!	!
2C/	-mi-	1c\	ſab-	.	.	.	.
!	!	!	!	!LO:LB:g=original	!	!	!
=17-	=17-	=17-	=17-	=17-	=17-	=17-	=17-
1F	-nus	.	.	2.f\	.	1a	de-
.	.	4B-/	.	.	.	.	.
.	.	4A/	.	4e\	.	.	.
1G	.	1B-	-ba-	1d	.	1g	-us
=18-	=18-	=18-	=18-	=18-	=18-	=18-	=18-
*	*	*	*	*	*	*custos:f	*
!	!	!LO:TX:t=P:problem=kreska pseudotaktowa	!	!LO:TX:t=P:problem=kreska pseudotaktowa	!	!LO:TX:t=P:problem=kreska pseudotaktowa	!
1A	.	1c	-oth,	0c	.	1e	ſab-
!	!	!	!	!	!	!LO:LB:g=original	!
2.F\	de-	2r	.	.	.	2f\	-ba-
.	.	1f\	do-	.	.	1a\	-oth;
!LO:TX:t=P:problem=kreska pseudotaktowa	!	!	!	!	!	!	!
4G\	-us	.	.	.	.	.	.
=19-	=19-	=19-	=19-	=19-	=19-	=19-	=19-
4A\	ſab-	.	.	0r	.	.	.
4B-\	.	.	.	.	.	.	.
!	!	!LO:TX:t=P:problem=kreska pseudotaktowa	!	!	!	!	!
2.c\	-ba-	2e\	.	.	.	2g\	.
.	.	1d	-mi-	.	.	1f	.
8B-\L	-oth	.	.	.	.	.	.
8A\J	.	.	.	.	.	.	.
2B-\	.	.	.	.	.	.	.
=20-	=20-	=20-	=20-	=20-	=20-	=20-	=20-
!LO:TX:t=P:problem=kreska pseudotaktowa	!	!	!	!	!	!LO:TX:t=P:problem=kreska pseudotaktowa	!
1c	.	1.c	-nus	2r	.	0e	.
.	.	.	.	1g	do-	.	.
2r	.	.	.	.	.	.	.
*custos:d	*	*	*	*	*	*	*
!	!	!	!	!LO:TX:t=P:problem=kreska pseudotaktowa	!	!	!
2c\	do-	4B-/	.	2a\	-mi-	.	.
!	!	!LO:TX:t=P:problem=kreska pseudotaktowa	!	!	!	!	!
.	.	4A/	.	.	.	.	.
!LO:LB:g=original	!	!	!	!	!	!	!
=21-	=21-	=21-	=21-	=21-	=21-	=21-	=21-
2d\	-mi-	2B-/	de-	2g\	.	1r	.
!LO:TX:t=P:problem=kreska pseudotaktowa	!	!	!	!	!	!	!
2c\	-nus	2A/	-us	1a	-nus	.	.
!	!	!LO:TX:t=P:problem=kreska pseudotaktowa	!	!	!	!	!
2.A\	de-	1F	.	.	.	0a	do-
.	.	.	.	4g\	de-	.	.
!	!	!	!	!LO:TX:t=P:problem=kreska pseudotaktowa	!	!	!
4B-\	.	.	.	4f\	.	.	.
=22-	=22-	=22-	=22-	=22-	=22-	=22-	=22-
2c\	-us	2r	.	2e\	-us	.	.
*	*	*	*ij	*	*	*	*
2.F/	ſab-	2.A/	do-	1f	.	.	.
.	.	.	.	.	.	1a	-mi-
4G/	-ba-	4B-/	.	.	.	.	.
!LO:TX:t=P:problem=kreska pseudotaktowa	!	!LO:TX:t=P:problem=kreska pseudotaktowa	!	!LO:TX:t=P:problem=kreska pseudotaktowa	!	!	!
2A\	-oth	2c/	.	2e\	.	.	.
=23-	=23-	=23-	=23-	=23-	=23-	=23-	=23-
!	!	!	!	!	!	!LO:TX:t=P:problem=kreska pseudotaktowa	!
2.D/	.	2.d\	-mi-	2.f\	ſab-	0a	-nus
4E/	.	8c/L	.	8e\L	-ba-	.	.
*	*	*custos:A	*	*	*	*	*
!	!	!LO:TX:t=P:problem=kreska pseudotaktowa	!	!LO:TX:t=P:problem=kreska pseudotaktowa	!	!	!
.	.	8B-/J	.	8d\J	.	.	.
2F/	.	2A/	-nus	2c/	-oth:	.	.
!	!	!LO:LB:g=original	!	!	!	!	!
!LO:TX:t=P:problem=kreska pseudotaktowa	!	!	!	!	!	!	!
2D/	.	2.f\	de-	2.d\	.	.	.
=24-	=24-	=24-	=24-	=24-	=24-	=24-	=24-
1A	.	.	.	.	.	1f	.
.	.	4e\	.	4c/	.	.	.
*	*	*	*	*custos:B-	*	*	*
.	.	4d\	.	1c	.	.	.
!	!	!LO:TX:t=P:problem=kreska pseudotaktowa	!	!	!	!	!
.	.	4c\	.	.	.	.	.
1G	.	2d\	.	.	.	1g	de-
!	!	!	!	!LO:LB:g=original	!	!	!
.	.	2d\	-us	2B-/	.	.	.
*	*	*	*Xij	*	*	*	*
=25-	=25-	=25-	=25-	=25-	=25-	=25-	=25-
!LO:TX:t=P:problem=kreska pseudotaktowa	!	!LO:TX:t=P:problem=kreska pseudotaktowa	!	!LO:TX:t=P:problem=kreska pseudotaktowa	!	!LO:TX:t=P:problem=kreska pseudotaktowa	!
0C	.	1c	.	0c	.	1e	-us
.	.	2r	.	.	.	2r	.
.	.	2e\	ſab-	.	.	2g\	[[do-
=26-	=26-	=26-	=26-	=26-	=26-	=26-	=26-
2r	.	2.f\	-ba-	0r	.	1.a	-mi-
*	*ij	*	*	*	*	*	*
1F	do-	.	.	.	.	.	.
.	.	8e\L	.	.	.	.	.
.	.	8d\J	.	.	.	.	.
!	!	!LO:TX:t=P:problem=kreska pseudotaktowa	!	!	!	!	!
.	.	2c/	-oth	.	.	.	.
!LO:TX:t=P:problem=kreska pseudotaktowa	!	!	!	!	!	!LO:TX:t=P:problem=kreska pseudotaktowa	!
2D/	-mi-	2.d\	.	.	.	2f\	.
=27-	=27-	=27-	=27-	=27-	=27-	=27-	=27-
2E/	-nus	.	.	2r	.	2g\	-nus
.	.	4c/	.	.	.	.	.
!	!	!	!	!LO:TX:t=P:problem=kreska pseudotaktowa	!	!	!
2F/	.	1c	.	2F/	do-	1a	de-
1D	de-	.	.	2F/	-mi-	.	.
!	!	!LO:TX:t=P:problem=kreska pseudotaktowa	!	!	!	!	!
.	.	2B-/	.	2F/	-nus	4g\	.
.	.	.	.	.	.	4f\	.
=28-	=28-	=28-	=28-	=28-	=28-	=28-	=28-
*custos:F	*	*	*	*	*	*	*
!LO:TX:t=P:problem=kreska pseudotaktowa	!	!	!	!	!	!	!
*	*	*	*ij	*	*	*	*
1C	-us	1.c	sab-	1G	de-	1e	-us]]
*	*	*	*	*	*	*custos:f	*
!LO:PB:g=original	!	!	!	!LO:TX:t=P:problem=kreska pseudotaktowa	!	!LO:TX:t=P:problem=kreska pseudotaktowa	!
1.F	ſab-	.	.	1A	-us	0f	ſab-
.	.	2B-/	-ba-	.	.	.	.
=29-	=29-	=29-	=29-	=29-	=29-	=29-	=29-
.	.	2A/	.	1.c	ſab-	.	.
2E/	.	2G/	.	.	.	.	.
!	!	!	!	!	!	!LO:LB:g=original	!
0D	-ba-	1A	.	.	.	0f	-ba-
.	.	.	.	4B-/	-ba-	.	.
.	.	.	.	4A/	.	.	.
=30-	=30-	=30-	=30-	=30-	=30-	=30-	=30-
.	.	1F	.	1B-	-oth.	.	.
!	!	!	!	!LO:TX:t=P:problem=w adnotacji Pleni [[tacet]]\dopisane niżej Vide infra\i na dolnym marginesie strony doklejona pięciolinia z dopisaną partią.	!	!	!
!LO:N:vis=00	!	!LO:N:vis=00	!	!LO:N:vis=00	!	!LO:N:vis=00	!
1C;	-oth	1G;	-oth	1c;<	.	1e;<	-oth.
*	*Xij	*	*Xij	*	*	*	*
!	!	!LO:PB:g=original	!	!	!	!	!
=31||-	=31||-	=31||-	=31||-	=31||-	=31||-	=31||-	=31||-
!LO:TX:a:t=[[DVO]]	!	!LO:TX:b:t=Pleni tacet	!	!LO:TX:a:t=1697\n15 9bris. (novembris?)	!	!LO:TX:b:t=Dvo	!
0r	.	0ryy	.	1.c	Ple-	0r	.
.	.	.	.	2c/	-ni	.	.
=32-	=32-	=32-	=32-	=32-	=32-	=32-	=32-
!	!	!	!	!	!	!LO:TX:t=P:problem=kreska pseudotaktowa	!
0r	.	0ryy	.	1d	ſunt	0r	.
.	.	.	.	1e	c(ae)-	.	.
=33-	=33-	=33-	=33-	=33-	=33-	=33-	=33-
0r	.	0ryy	.	2c/	-li	1.c	Ple-
.	.	.	.	1g	et	.	.
!	!	!	!	!	!	!LO:TX:t=P:problem=kreska pseudotaktowa	!
.	.	.	.	4f\	.	2c/	-ni
.	.	.	.	4e\	.	.	.
=34-	=34-	=34-	=34-	=34-	=34-	=34-	=34-
0r	.	0ryy	.	4f\	ter-	1d	ſunt
.	.	.	.	4g\	.	.	.
.	.	.	.	4a\	.	.	.
.	.	.	.	4f\	.	.	.
.	.	.	.	4g\	.	1e	c(ae)-
.	.	.	.	4c\	.	.	.
.	.	.	.	4d\	.	.	.
.	.	.	.	4e\	.	.	.
=35-	=35-	=35-	=35-	=35-	=35-	=35-	=35-
!	!	!	!	!LO:TX:t=P:problem=we fragmencie dopisanym cauy półnut po lewej	!	!	!
*	*	*	*	*2\left	*	*	*
1.F	Ple-	0ryy	.	2f\	-ra	2c/	-li
.	.	.	.	1a	et	1f	et
!LO:TX:t=P:problem=kreska pseudotaktowa	!	!	!	!	!	!	!
2F/	-ni	.	.	4g\	.	4e/	ter-
!	!	!	!	!	!	!LO:TX:t=P:problem=kreska pseudotaktowa	!
.	.	.	.	4f\	.	4d/	.
=36-	=36-	=36-	=36-	=36-	=36-	=36-	=36-
1G	ſunt	0ryy	.	4e\	ter-	4e/	-ra
.	.	.	.	4d\	.	4f/	.
!	!	!	!	!	!	!LO:TX:t=P:problem=kreska pseudotaktowa	!
.	.	.	.	2e\	.	2g\	.
1A	c(ae)-	.	.	2c/	.	2e/	.
.	.	.	.	1d\	.	1f\	.
=37-	=37-	=37-	=37-	=37-	=37-	=37-	=37-
2F/	-li	0ryy	.	.	.	.	.
1c	et	.	.	4c\	.	4e/	.
*	*	*	*	*	*	*custos:e	*
!	!	!	!	!	!	!LO:TX:t=P:problem=kreska pseudotaktowa	!
.	.	.	.	4B-/	.	4d/	.
!	!	!	!	!	!	!LO:PB:g=original	!
.	.	.	.	4A/	.	1e	.
.	.	.	.	4G/	.	.	.
4B-\	.	.	.	2.g\	.	.	.
!LO:TX:t=P:problem=kreska pseudotaktowa	!	!	!	!	!	!	!
4A\	.	.	.	.	.	.	.
=38-	=38-	=38-	=38-	=38-	=38-	=38-	=38-
2B-\	.	0ryy	.	.	.	2r	.
.	.	.	.	4f\	.	.	.
2A\	.	.	.	1f	.	1a	et
1d	ter-	.	.	.	.	.	.
.	.	.	.	4e\	.	4g\	.
!	!	!	!	!	!	!LO:TX:t=P:problem=kreska pseudotaktowa	!
.	.	.	.	4d\	.	4f\	ter-
=39-	=39-	=39-	=39-	=39-	=39-	=39-	=39-
*custos:B-	*	*	*	*	*	*	*
2c\	.	0ryy	.	2e\	-ra	2e/	-ra-
!LO:LB:g=original	!	!	!	!	!	!	!
1B-	.	.	.	1d	glo-	2f/	.
.	.	.	.	.	.	2d/	.
4A\	.	.	.	4c\	.	1f\	.
!LO:TX:t=P:problem=kreska pseudotaktowa	!	!	!	!	!	!	!
4G\	.	.	.	4B-\	.	.	.
=40-	=40-	=40-	=40-	=40-	=40-	=40-	=40-
2F\	.	0ryy	.	1B-	.	.	.
!	!	!	!	!LO:LB:g=original	!	!LO:TX:t=P:problem=kreska pseudotaktowa	!
2.G\	.	.	.	.	.	2e/	.
.	.	.	.	.	.	.	.
.	.	.	.	4B-/	-a	2.d/	.
4E/	.	.	.	4c\	.	.	.
2.F/	.	.	.	4d\	.	.	.
.	.	.	.	4e\	.	8c/L	.
.	.	.	.	.	.	8B-/J	.
=41-	=41-	=41-	=41-	=41-	=41-	=41-	=41-
.	.	0ryy	.	4f\	.	4A/	.
4E/	.	.	.	4g\	.	4G/	.
!	!	!	!	!	!	!LO:TX:t=P:problem=poprawka wklejona na kartce, na górnym i dolnym marginesie karty są na małych pięcioliniach wcześniejsze "próbki" poprawki zaklejonego, błędnego fragmentu	!
4D/	.	.	.	2.f\	.	1c	.
4C/	.	.	.	.	.	.	.
1D	-ra	.	.	.	.	.	.
.	.	.	.	4e\	.	.	.
!	!	!	!	!	!	!LO:TX:t=P:problem=kreska pseudotaktowa	!
.	.	.	.	4f\	tu-	2B-/	-ra
.	.	.	.	4d\	.	.	.
=42-	=42-	=42-	=42-	=42-	=42-	=42-	=42-
!LO:TX:t=P:problem=kreska pseudotaktowa	!	!	!	!	!	!	!
1C	.	0ryy	.	2e\	-a	2c/	.
.	.	.	.	2c/	ple-	2e/	ple-
*	*	*	*	*	*	*2\left	*
1r	.	.	.	2d\	-ni	2f\	-ni
.	.	.	.	2e\	ſunt	2g\	ſunt
=43-	=43-	=43-	=43-	=43-	=43-	=43-	=43-
*	*ij	*	*	*	*	*	*
1.F	ple-	0ryy	.	2f\	c(ae)-	2a\	c(ae)-
*	*	*	*	*	*	*2\right	*
!	!	!	!	!	!	!LO:TX:t=P:problem=kreska pseudotaktowa	!
.	.	.	.	4a\	.	2c/	-li
.	.	.	.	4g\	.	.	.
.	.	.	.	2f\	.	2d/	ple-
!LO:TX:t=P:problem=kreska pseudotaktowa	!	!	!	!	!	!	!
2G\	.	.	.	4.e\	.	2.e/	-ni
.	.	.	.	8d\	.	.	.
2.A\	.	0ryy	.	4c\	.	.	.
.	.	.	.	4A/	.	4c/	.
*	*	*	*	*	*	*custos:e	*
!	!	!	!	!	!	!LO:TX:t=P:problem=kreska pseudotaktowa	!
.	.	.	.	2a\	.	2f/	.
4B-\	.	.	.	.	.	.	.
!	!	!	!	!	!	!LO:LB:g=original	!
*	*	*	*	*	*	*clefC3	*
2c\	-ni	.	.	2g\	.	2e\	.
!LO:TX:t=P:problem=kreska pseudotaktowa	!	!	!	!	!	!	!
2F/	ſunt	.	.	4.f\	.	1f\	ſunt;
.	.	.	.	8e\	.	.	.
=45-	=45-	=45-	=45-	=45-	=45-	=45-	=45-
2.A\	c(ae)-	0ryy	.	2d\	-li	.	.
.	.	.	.	4g\	et	4e\	.
!	!	!	!	!	!	!LO:TX:t=P:problem=kreska pseudotaktowa	!
4B-\	.	.	.	4f\	.	4d\	.
*custos:d	*	*	*	*	*	*	*
2c\	-li	.	.	2e\	ter-	2e\	.
!LO:LB:g=original	!	!	!	!	!	!	!
!LO:TX:t=P:problem=kreska pseudotaktowa	!	!	!	!	!	!	!
2d\	et	.	.	2d\	.	2f\	.
=46-	=46-	=46-	=46-	=46-	=46-	=46-	=46-
2B-\	ter-	0ryy	.	2.e\	.	2.g\	.
1c	.	.	.	.	.	.	.
!	!	!	!	!	!	!LO:TX:t=P:problem=kreska pseudotaktowa	!
.	.	.	.	4d\	.	4f\	.
.	.	.	.	2c/	.	2e\	.
!LO:TX:t=P:problem=kreska pseudotaktowa	!	!	!	!	!	!	!
2B-\	.	.	.	2d\	.	2d\	.
=47-	=47-	=47-	=47-	=47-	=47-	=47-	=47-
2c\	.	0ryy	.	2G/	-ra	2.e\	.
2C/	-ra	.	.	2g\	et	.	.
*	*Xij	*	*	*	*	*	*
!	!	!	!	!	!	!LO:TX:t=P:problem=kreska pseudotaktowa	!
.	.	.	.	.	.	4d\	.
2.F/	glo-	.	.	4f\	.	2c\	.
.	.	.	.	4e\	.	.	.
.	.	.	.	2d\	ter-	1f\	glo-
!LO:TX:t=P:problem=kreska pseudotaktowa	!	!	!	!	!	!	!
4G/	-ri-	.	.	.	.	.	.
=48-	=48-	=48-	=48-	=48-	=48-	=48-	=48-
2A\	-a	0ryy	.	1.c	.	.	.
2F/	.	.	.	.	.	4e\	-ri-
!	!	!	!	!	!	!LO:TX:t=P:problem=kreska pseudotaktowa	!
.	.	.	.	.	.	4d\	-a
2G\	.	.	.	.	.	2e\	tu-
2.B-\	tu-	.	.	4B-/	.	1d\	-a;
.	.	.	.	4A/	.	.	.
=49-	=49-	=49-	=49-	=49-	=49-	=49-	=49-
!	!	!	!	!LO:TX:a:t=Verte cito	!	!	!
.	.	0ryy	.	2B-/	.	.	.
4A\	.	.	.	.	.	.	.
!	!	!	!	!LO:PB:g=original	!	!LO:TX:t=P:problem=kreska pseudotaktowa	!
1A	-a;	.	.	2c/	-ra	2c/	.
.	.	.	.	2.d\	glo-	1B-	.
2G\	.	.	.	.	.	.	.
.	.	.	.	4e\	.	.	.
=50-	=50-	=50-	=50-	=50-	=50-	=50-	=50-
!LO:TX:t=P:problem=kreska pseudotaktowa	!	!	!	!	!	!LO:TX:t=P:problem=kreska pseudotaktowa	!
0A	.	0ryy	.	2.f\	.	1A	.
.	.	.	.	4g\	.	.	.
*	*	*	*	*	*	*custos:F	*
.	.	.	.	2a\	.	2r	.
!	!	!	!	!	!	!LO:LB:g=original	!
*	*	*	*	*	*	*	*ij
.	.	.	.	4.f\	.	2.F/	-glo-
.	.	.	.	8e\	.	.	.
=51-	=51-	=51-	=51-	=51-	=51-	=51-	=51-
2r	.	0ryy	.	4d\	.	.	.
.	.	.	.	4e\	.	4G/	.
1F	glo-	.	.	4f\	.	4A/	.
!	!	!	!	!	!	!LO:TX:t=P:problem=kreska pseudotaktowa	!
.	.	.	.	4g\	.	4B-/	.
.	.	.	.	2a\	.	2c/	.
!LO:TX:t=P:problem=kreska pseudotaktowa	!	!	!	!	!	!	!
2F/	-ri-	.	.	2f\	.	2A/	.
=52-	=52-	=52-	=52-	=52-	=52-	=52-	=52-
2G\	-a	0ryy	.	4e\	-ri-	2B-/	.
.	.	.	.	4d\	.	.	.
!	!	!	!	!	!	!LO:TX:t=P:problem=kreska pseudotaktowa	!
1A	tu-	.	.	1c	-a	2c/	-ri-
.	.	.	.	.	.	2F/	-a
*custos:B-	*	*	*	*	*	*	*
!LO:TX:t=P:problem=kreska pseudotaktowa	!	!	!	!	!	!	!
2F/	-a;	.	.	1d\	tu-	1f\	tu-
!LO:LB:g=original	!	!	!	!	!	!	!
=53-	=53-	=53-	=53-	=53-	=53-	=53-	=53-
1B-	.	0ryy	.	.	.	.	.
.	.	.	.	4c\	.	4e\	.
!	!	!	!	!	!	!LO:TX:t=P:problem=kreska pseudotaktowa	!
.	.	.	.	4B-\	.	4d\	.
!LO:TX:t=P:problem=kreska pseudotaktowa	!	!	!	!	!	!	!
1A	.	.	.	2c/	.	2e\	-a
*	*	*	*	*	*	*	*Xij
.	.	.	.	2A/	.	2c/	glo-
=54-	=54-	=54-	=54-	=54-	=54-	=54-	=54-
2r	.	0ryy	.	2B-/	.	2d/	-ri-
!	!	!	!	!	!	!LO:TX:t=P:problem=kreska pseudotaktowa	!
*	*ij	*	*	*	*	*	*
2.A\	glo-	.	.	2.c/	.	2e\	-a
.	.	.	.	.	.	2c/	tu-
4G/	.	.	.	4B-/	.	.	.
4F/	.	.	.	4A/	.	1f\	-a;
!LO:TX:t=P:problem=kreska pseudotaktowa	!	!	!	!	!	!	!
4E/	.	.	.	4G/	.	.	.
=55-	=55-	=55-	=55-	=55-	=55-	=55-	=55-
2D/	.	0ryy	.	4A/	.	.	.
.	.	.	.	4B-/	.	.	.
!	!	!	!	!	!	!LO:TX:t=P:problem=kreska pseudotaktowa	!
2.G\	.	.	.	2c/	-a	2e\	.
.	.	.	.	2.d\	glo-	2.d\	.
4F/	.	.	.	.	.	.	.
1F\	.	.	.	.	.	.	.
.	.	.	.	4e\	.	8c/L	.
*	*	*	*	*	*	*custos:A	*
!	!	!	!	!	!	!LO:TX:t=P:problem=kreska pseudotaktowa	!
.	.	.	.	.	.	8B-/J	.
!	!	!	!	!	!	!LO:LB:g=original	!
*	*	*	*	*	*	*clefC2	*
=56-	=56-	=56-	=56-	=56-	=56-	=56-	=56-
.	.	0ryy	.	4f\	.	4A/	.
.	.	.	.	4d\	.	4G/	.
4E/	-ri-	.	.	1g	.	4A/	.
!LO:TX:t=P:problem=kreska pseudotaktowa	!	!	!	!	!	!LO:TX:t=P:problem=kreska pseudotaktowa	!
4D/	.	.	.	.	.	4B-/	.
*	*	*	*	*	*	*	*ij
2E/	-a	.	.	.	.	2c/	glo-
2.F/	tu-	.	.	2f\	-ri-	2.d/	.
=57-	=57-	=57-	=57-	=57-	=57-	=57-	=57-
.	.	0ryy	.	2g\	-a	.	.
4E/	.	.	.	.	.	4c/	.
4D/	.	.	.	2a\	.	1f	-ri-
4C/	.	.	.	.	.	.	.
!LO:TX:t=P:problem=kreska pseudotaktowa	!	!	!	!	!	!	!
1D	.	.	.	2d\	.	.	.
.	.	.	.	4g\	.	4e/	.
!	!	!	!	!	!	!LO:TX:t=P:problem=kreska pseudotaktowa	!
.	.	.	.	4f\	.	4d/	.
=58-	=58-	=58-	=58-	=58-	=58-	=58-	=58-
2C/	-a	0ryy	.	4e\	.	4e/	-a-
*	*Xij	*	*	*	*	*	*
.	.	.	.	4d\	.	4f/	.
!	!	!	!	!LO:LB:g=original	!	!	!
2c\	glo-	.	.	2c\yy	.	2.g\	-tu-
2B-\	-ri-	.	.	1dyy	.	.	.
.	.	.	.	.	.	4f\	.
*custos:G	*	*	*	*	*	*	*
!LO:TX:t=P:problem=kreska pseudotaktowa	!	!	!	!	!	!	!
2A\	-a	.	.	.	.	1f\	.
!LO:PB:g=original	!	!	!	!	!	!	!
=59-	=59-	=59-	=59-	=59-	=59-	=59-	=59-
1G	tu-	0ryy	.	2.B-/	tu-	.	.
.	.	.	.	.	.	2e\	-a
*	*	*	*	*	*	*	*Xij
.	.	.	.	4B-/	-a	.	.
!	!	!	!	!LO:TX:b:t=Verte retro\nSub Osanna	!	!	!
!LO:N:vis=00	!	!	!	!LO:N:vis=00	!	!LO:N:vis=00	!
1F;<	-a;	.	.	1A;;	.	1f;<	.
=60||-	=60||-	=60||-	=60||-	=60||-	=60||-	=60||-	=60||-
*	*	*	*	*2\right	*	*	*
0F	O-	0c	O-	0f	O-	0a	O-
=61-	=61-	=61-	=61-	=61-	=61-	=61-	=61-
!LO:TX:t=P:problem=kreska pseudotaktowa	!	!LO:TX:t=P:problem=kreska pseudotaktowa	!	!LO:TX:t=P:problem=kreska pseudotaktowa	!	!	!
!	!	!	!	!	!	!LO:TX:t=P:problem=kreska pseudotaktowa	!
1F	-ſan-	1c	-ſan-	1f	-ſan-	1a	-ſan-
*	*	*	*	*	*	*custos:d	*
!LO:TX:t=P:problem=kreska pseudotaktowa	!	!	!	!	!	!	!
1C	-na	1.c	-na	0e	-na	0g	-na:
=62-	=62-	=62-	=62-	=62-	=62-	=62-	=62-
1.c	in	.	.	.	.	.	.
!	!	!LO:TX:t=P:problem=kreska pseudotaktowa	!	!	!	!	!
.	.	2B-/	.	.	.	.	.
!	!	!	!	!LO:TX:t=P:problem=kreska pseudotaktowa	!	!LO:TX:t=P:problem=kreska pseudotaktowa	!
!	!	!	!	!	!	!LO:LB:g=original	!
.	.	2A/	.	1e	in	0a	in
2B-\	ex-	2G/	.	.	.	.	.
=63-	=63-	=63-	=63-	=63-	=63-	=63-	=63-
2A\	-cel-	1F	.	1f	ex-	.	.
!LO:TX:t=P:problem=kreska pseudotaktowa	!	!	!	!	!	!	!
2G\	-ſis	.	.	.	.	.	.
!	!	!LO:TX:t=P:problem=kreska pseudotaktowa	!	!	!	!	!
1.F	.	1c	in	2.f\	-cel-	1.a	ex-
.	.	.	.	4e\	-ſis	.	.
=64-	=64-	=64-	=64-	=64-	=64-	=64-	=64-
.	.	2F/	ex-	4d/	.	.	.
.	.	.	.	4c/	.	.	.
!	!	!	!	!LO:TX:t=P:problem=kreska pseudotaktowa	!	!	!
2E/	.	2G/	-cel-	2.c/	.	2g\	.
1D	.	2A/	.	.	.	1f	-cel-
.	.	.	.	8B-/L	.	.	.
.	.	.	.	8A/J	.	.	.
!	!	!	!	!LO:TX:t=P:problem=kreska pseudotaktowa	!	!	!
.	.	2F/	-ſis;	2B-/	.	.	.
=65-	=65-	=65-	=65-	=65-	=65-	=65-	=65-
!LO:TX:t=P:problem=kreska pseudotaktowa	!	!LO:TX:t=P:problem=kreska pseudotaktowa	!	!	!	!LO:TX:t=P:problem=kreska pseudotaktowa	!
1C	.	0G	.	1c	.	1e	-ſis
2r	.	.	.	2d\	.	2r	.
*custos:F	*	*	*	*	*	*	*
!LO:TX:t=P:problem=kreska pseudotaktowa	!	!	!	!	!	!	!
*	*ij	*	*	*	*	*	*ij
2C/	o	.	.	2e\	.	2g\	ex-
!LO:LB:g=original	!	!	!	!	!	!	!
=66-	=66-	=66-	=66-	=66-	=66-	=66-	=66-
*	*	*custos:F	*	*	*	*	*
2.F/	ſan-	2r	.	1f	.	1.a	-cel-
!	!	!LO:LB:g=original	!	!	!	!	!
.	.	2F/	o-	.	.	.	.
!LO:TX:t=P:problem=kreska pseudotaktowa	!	!	!	!	!	!	!
4G\	.	.	.	.	.	.	.
!	!	!	!	!LO:TX:t=P:problem=kreska pseudotaktowa	!	!	!
4A\	.	1.c	-ſan-	1e	.	.	.
4G\	.	.	.	.	.	.	.
4A\	.	.	.	.	.	4g\	.
!LO:TX:t=P:problem=kreska pseudotaktowa	!	!	!	!	!	!LO:TX:t=P:problem=kreska pseudotaktowa	!
4B-\	.	.	.	.	.	4f\	.
=67-	=67-	=67-	=67-	=67-	=67-	=67-	=67-
2c\	-na	.	.	0r	.	2e/	.
!	!	!LO:TX:t=P:problem=kreska pseudotaktowa	!	!	!	!	!
2.d\	in	2B-/	.	.	.	2.f/	.
.	.	1A	-na	.	.	.	.
4c\	ex-	.	.	.	.	4e/	.
1c\	-cel-	.	.	.	.	4d/	.
!	!	!	!	!	!	!LO:TX:t=P:problem=kreska pseudotaktowa	!
.	.	.	.	.	.	4c/	.
=68-	=68-	=68-	=68-	=68-	=68-	=68-	=68-
!	!	!LO:TX:t=P:problem=kreska pseudotaktowa	!	!	!	!	!
.	.	1G	in	2r	.	1d	.
*	*	*	*	*custos:f	*	*	*
!LO:TX:t=P:problem=kreska pseudotaktowa	!	!	!	!LO:TX:t=P:problem=kreska pseudotaktowa	!	!	!
*	*	*	*	*	*ij	*	*
2B-\	.	.	.	2g\	O-	.	.
!LO:TX:t=P:problem=kreska pseudotaktowa	!	!	!	!LO:LB:g=original	!	!	!
1c	-sis	2.A/	ex-	2f\	.	2.c/	.
.	.	.	.	1e\	-ſan-	.	.
!	!	!	!	!	!	!LO:TX:t=P:problem=kreska pseudotaktowa	!
.	.	4B-/	.	.	.	4d/	.
=69-	=69-	=69-	=69-	=69-	=69-	=69-	=69-
0r	.	2c/	-cel-	.	.	4e/	.
.	.	.	.	.	.	4f/	.
.	.	4G/	-ſis	4d\	.	2.g\	.
!	!	!LO:TX:t=P:problem=kreska pseudotaktowa	!	!LO:TX:t=P:problem=kreska pseudotaktowa	!	!	!
.	.	4A/	.	4c\	.	.	.
.	.	4B-/	.	2d\	-na	.	.
*	*	*	*	*	*	*custos:f	*
!	!	!	!	!	!	!LO:TX:t=P:problem=kreska pseudotaktowa	!
.	.	4c/	.	.	.	4f\	.
!	!	!LO:TX:t=P:problem=kreska pseudotaktowa	!	!	!	!LO:LB:g=original	!
.	.	2d\	.	2f\	in	1f\	.
=70-	=70-	=70-	=70-	=70-	=70-	=70-	=70-
*	*	*	*ij	*	*	*	*
1C	o-	2.c/	in	1g	ex-	.	.
.	.	.	.	.	.	2e/	.
.	.	4B-/	.	.	.	.	.
!	!	!	!	!	!	!LO:TX:t=P:problem=kreska pseudotaktowa	!
1.F	-ſan-	4A/	.	1.a	-cel-	1f	-sis
*	*	*	*	*	*	*	*Xij
.	.	4G/	.	.	.	.	.
.	.	2.A/	ex-	.	.	.	.
=71-	=71-	=71-	=71-	=71-	=71-	=71-	=71-
.	.	.	.	.	.	1r	.
.	.	4G/	.	.	.	.	.
!LO:TX:t=P:problem=kreska pseudotaktowa	!	!	!	!LO:TX:t=P:problem=kreska pseudotaktowa	!	!	!
2E/	.	1c	-cel-	2g\	.	.	.
1D	.	.	.	1f	.	2r	.
.	.	2B-/	.	.	.	2f\	o-
=72-	=72-	=72-	=72-	=72-	=72-	=72-	=72-
*custos:F	*	*	*	*	*	*	*
!LO:TX:t=P:problem=kreska pseudotaktowa	!	!LO:TX:t=P:problem=kreska pseudotaktowa	!	!LO:TX:t=P:problem=kreska pseudotaktowa	!	!LO:TX:t=P:problem=kreska pseudotaktowa	!
1C	-na	1c	-ſis	1e	-ſis	1g	-ſan-
*	*	*	*Xij	*	*Xij	*	*
*	*	*custos:c	*	*	*	*	*
!LO:LB:g=original	!	!	!	!	!	!	!
2.F/	in	2r	.	2r	.	1.a	-na
!	!	!LO:LB:g=original	!	!	!	!	!
.	.	1c\	o-	2f\	o-	.	.
4G\	.	.	.	.	.	.	.
=73-	=73-	=73-	=73-	=73-	=73-	=73-	=73-
2A\	.	.	.	2e\	-ſan-	.	.
!LO:TX:t=P:problem=kreska pseudotaktowa	!	!LO:TX:t=P:problem=kreska pseudotaktowa	!	!LO:TX:t=P:problem=kreska pseudotaktowa	!	!	!
2F\	ex-	2c/	-ſan-	2f\	-na	2a\	in
2G\	-cel-	2B-/	.	2d\	in	2b-\	ex-
2A\	.	2c/	-na	1f\	ex-	1a\	-cel-
=74-	=74-	=74-	=74-	=74-	=74-	=74-	=74-
1B-	.	2.d\	in	.	.	.	.
.	.	.	.	4e\	-cel-	2g\	.
!	!	!	!	!LO:TX:t=P:problem=kreska pseudotaktowa	!	!	!
.	.	8c/L	ex-	4d\	.	.	.
!	!	!LO:TX:t=P:problem=kreska pseudotaktowa	!	!	!	!	!
.	.	8B-/J	.	.	.	.	.
!LO:TX:t=P:problem=kreska pseudotaktowa	!	!	!	!	!	!LO:TX:t=P:problem=kreska pseudotaktowa	!
0A	-ſis	2c/	-cel-	2e\	-ſis;	0a	-ſis
*	*Xij	*	*	*	*	*	*
.	.	1d\	-ſiſ,	2f\	.	.	.
!LO:LB:g=original	!	!	!	!	!	!	!
=75-	=75-	=75-	=75-	=75-	=75-	=75-	=75-
*	*	*	*	*custos:d	*	*	*
.	.	.	.	1e	.	.	.
!	!	!LO:TX:t=P:problem=kreska pseudotaktowa	!	!	!	!	!
.	.	2c/	.	.	.	.	.
!	!	!	!	!LO:LB:g=original	!	!	!
!	!	!	!	!LO:TX:t=P:problem=kreska pseudotaktowa	!	!	!
1r	.	1d	.	1d	.	1r	.
=76-	=76-	=76-	=76-	=76-	=76-	=76-	=76-
!	!	!LO:TX:t=P:problem=kreska pseudotaktowa	!	!	!	!	!
*	*	*	*	*	*	*	*ij
0F	O-	0c	.	0f	o-	0a	o-
=77-	=77-	=77-	=77-	=77-	=77-	=77-	=77-
!LO:TX:t=P:problem=kreska pseudotaktowa	!	!	!	!	!	!LO:TX:t=P:problem=kreska pseudotaktowa	!
1F	-ſan-	1c	.	1f	-ſan-	1a	-ſan-
1C	-na	1.c	.	0e	-na	0g	-na
=78-	=78-	=78-	=78-	=78-	=78-	=78-	=78-
1.c	in	.	.	.	.	.	.
!	!	!LO:TX:t=P:problem=kreska pseudotaktowa	!	!	!	!	!
.	.	2B-/	.	.	.	.	.
!	!	!	!	!LO:TX:t=P:problem=kreska pseudotaktowa	!	!	!
.	.	2A/	.	1e	in	0a	in
!LO:TX:t=P:problem=kreska pseudotaktowa	!	!	!	!	!	!	!
2B-\	.	2G/	.	.	.	.	.
=79-	=79-	=79-	=79-	=79-	=79-	=79-	=79-
*	*	*	*ij	*	*	*	*
2A\	ex-	1F	ex-	1f	ex-	.	.
2G\	.	.	.	.	.	.	.
!	!	!LO:TX:t=P:problem=kreska pseudotaktowa	!	!	!	!	!
1.F	-cel-	1c	-cel-	2.f\	-cel-	1.a	ex-
!	!	!	!	!LO:TX:t=P:problem=kreska pseudotaktowa	!	!	!
.	.	.	.	4e\	-ſis;	.	.
=80-	=80-	=80-	=80-	=80-	=80-	=80-	=80-
.	.	2F/	.	4d/	.	.	.
.	.	.	.	4c/	.	.	.
*	*	*custos:A	*	*	*	*	*
!LO:TX:t=P:problem=kreska pseudotaktowa	!	!	!	!	!	!LO:TX:t=P:problem=kreska pseudotaktowa	!
2E/	-ſis;	2G/	.	2.c/	.	2g\	.
!	!	!LO:LB:g=original	!	!	!	!	!
1D	.	2A/	.	.	.	1.f	-cel-
.	.	.	.	8B-/L	.	.	.
.	.	.	.	8A/J	.	.	.
!	!	!	!	!LO:TX:t=P:problem=kreska pseudotaktowa	!	!	!
.	.	2F/	.	2B-/	.	.	.
=81-	=81-	=81-	=81-	=81-	=81-	=81-	=81-
0C	.	0G	.	0c	.	.	.
.	.	.	.	.	.	4e/	.
.	.	.	.	.	.	4d/	.
.	.	.	.	.	.	1e	.
=82-	=82-	=82-	=82-	=82-	=82-	=82-	=82-
*custos:F	*	*	*	*custos:c	*	*	*
!LO:N:vis=00	!	!LO:N:vis=00	!	!LO:N:vis=00	!	!LO:N:vis=00	!
0F;<	.	0A;	-ſis	0c;<	.	0f;<	-ſis
*	*	*	*Xij	*	*	*	*Xij
!LO:LB:g=original	!	!	!	!LO:LB:g=original	!	!	!
=83||-	=83||-	=83||-	=83||-	=83||-	=83||-	=83||-	=83||-
!	!	!	!	!LO:TX:t=P:problem=kreska pseudotaktowa	!	!	!
1F	Be-	0r	.	0r	.	0ryy	.
1.F	-ne-	.	.	.	.	.	.
=84-	=84-	=84-	=84-	=84-	=84-	=84-	=84-
.	.	0r	.	0c	Be-	0ryy	.
4E/	-dic-	.	.	.	.	.	.
!LO:TX:t=P:problem=kreska pseudotaktowa	!	!	!	!	!	!	!
4D/	.	.	.	.	.	.	.
2E/	-tus	.	.	.	.	.	.
2F/	.	.	.	.	.	.	.
=85-	=85-	=85-	=85-	=85-	=85-	=85-	=85-
!	!	!LO:TX:t=P:problem=kreska pseudotaktowa	!	!	!	!	!
1D	.	1r	.	1d	-ne-	0ryy	.
!LO:TX:t=P:problem=kreska pseudotaktowa	!	!	!	!	!	!	!
1C	.	1c	Be-	2.e\	-dic-	.	.
!	!	!	!	!LO:TX:t=P:problem=kreska pseudotaktowa	!	!	!
.	.	.	.	4f\	.	.	.
=86-	=86-	=86-	=86-	=86-	=86-	=86-	=86-
1r	.	1.c	-ne-	2g\	-tus;	0ryy	.
.	.	.	.	1a	.	.	.
*	*ij	*	*	*	*	*	*
1F	Be-	.	.	.	.	.	.
.	.	4B-/	-dic-	4g\	.	.	.
!	!	!LO:TX:t=P:problem=kreska pseudotaktowa	!	!LO:TX:t=P:problem=kreska pseudotaktowa	!	!	!
.	.	4A/	.	4f\	.	.	.
=87-	=87-	=87-	=87-	=87-	=87-	=87-	=87-
2G\	-ne-	2B-/	-tus-	2.e\	.	0ryy	.
!LO:TX:t=P:problem=kreska pseudotaktowa	!	!	!	!	!	!	!
2.A\	-dic-	2c/	.	.	.	.	.
!	!	!	!	!LO:TX:t=P:problem=kreska pseudotaktowa	!	!	!
.	.	.	.	4d\	.	.	.
!	!	!LO:TX:t=P:problem=kreska pseudotaktowa	!	!	!	!	!
.	.	1A	.	2e\	.	.	.
4G\	.	.	.	.	.	.	.
!LO:TX:t=P:problem=kreska pseudotaktowa	!	!	!	!	!	!	!
2F/	.	.	.	2f\	.	.	.
=88-	=88-	=88-	=88-	=88-	=88-	=88-	=88-
2E/	.	2.G/	.	1g	.	0ryy	.
1G	.	.	.	.	.	.	.
.	.	4A/	.	.	.	.	.
!	!	!	!	!LO:TX:t=P:problem=kreska pseudotaktowa	!	!	!
.	.	4B-/	.	1d	.	.	.
.	.	4c/	.	.	.	.	.
4F/	.	2.d/	.	.	.	.	.
!LO:TX:t=P:problem=kreska pseudotaktowa	!	!	!	!	!	!	!
4E/	.	.	.	.	.	.	.
=89-	=89-	=89-	=89-	=89-	=89-	=89-	=89-
4F/	.	.	.	2r	.	0ryy	.
*	*	*custos:c	*	*	*	*	*
4E/	.	4c/	.	.	.	.	.
!	!	!LO:LB:g=original	!	!LO:TX:t=P:problem=kreska pseudotaktowa	!	!	!
4D/	.	1c	.	2f\	qui	.	.
*custos:D	*	*	*	*	*	*	*
4C/	.	.	.	.	.	.	.
!LO:LB:g=original	!	!	!	!	!	!	!
1D	.	.	.	1.f	ue-	.	.
!	!	!LO:TX:t=P:problem=kreska pseudotaktowa	!	!	!	!	!
.	.	2B-/	.	.	.	.	.
=90-	=90-	=90-	=90-	=90-	=90-	=90-	=90-
!LO:TX:t=P:problem=kreska pseudotaktowa	!	!LO:TX:t=P:problem=kreska pseudotaktowa	!	!	!	!	!
0C	-tus	1c	.	.	.	0ryy	.
*	*Xij	*	*	*	*	*	*
.	.	.	.	4e\	.	.	.
*	*	*	*	*custos:e	*	*	*
.	.	.	.	4d\	.	.	.
!	!	!	!	!LO:LB:g=original	!	!	!
.	.	2r	.	2.e\	-nit;	.	.
.	.	1c\	-be-	.	.	.	.
!	!	!	!	!LO:TX:t=P:problem=kreska pseudotaktowa	!	!	!
.	.	.	.	4f\	.	.	.
=91-	=91-	=91-	=91-	=91-	=91-	=91-	=91-
1r	.	.	.	4g\	.	0ryy	.
.	.	.	.	4e\	.	.	.
!	!	!LO:TX:t=P:problem=kreska pseudotaktowa	!	!	!	!	!
.	.	2B-/	-ne-	2.f\	.	.	.
2r	.	1A	-dic-	.	.	.	.
.	.	.	.	4e\	.	.	.
1c\	qui-	.	.	4d/	.	.	.
!	!	!	!	!LO:TX:t=P:problem=kreska pseudotaktowa	!	!	!
.	.	.	.	4c/	.	.	.
=92-	=92-	=92-	=92-	=92-	=92-	=92-	=92-
!	!	!LO:TX:t=P:problem=kreska pseudotaktowa	!	!LO:TX:t=P:problem=kreska pseudotaktowa	!	!	!
.	.	1G	-tus,	1d	.	0ryy	.
!LO:TX:t=P:problem=kreska pseudotaktowa	!	!	!	!	!	!	!
2B-\	.	.	.	.	.	.	.
2.A\	-ue-	2r	.	2.c/	.	.	.
.	.	1c\	qui	.	.	.	.
!	!	!	!	!LO:TX:t=P:problem=kreska pseudotaktowa	!	!	!
8G/L	-nit	.	.	4d/	.	.	.
!LO:TX:t=P:problem=kreska pseudotaktowa	!	!	!	!	!	!	!
8F/J	.	.	.	.	.	.	.
=93-	=93-	=93-	=93-	=93-	=93-	=93-	=93-
4E/	.	.	.	4e\	.	0ryy	.
4D/	.	.	.	4f\	.	.	.
4E/	.	4B-/	.	2.g\	.	.	.
!LO:TX:t=P:problem=kreska pseudotaktowa	!	!LO:TX:t=P:problem=kreska pseudotaktowa	!	!	!	!	!
4F/	.	4A/	.	.	.	.	.
2G/	.	2B-/	.	.	.	.	.
.	.	.	.	4e\	.	.	.
2.F/	.	2A/	.	1a\	.	.	.
=94-	=94-	=94-	=94-	=94-	=94-	=94-	=94-
.	.	2.c/	ve-	.	.	0ryy	.
4E/	.	.	.	.	.	.	.
!LO:TX:t=P:problem=kreska pseudotaktowa	!	!	!	!	!	!	!
2C/	.	.	.	1g	.	.	.
!	!	!LO:TX:t=P:problem=kreska pseudotaktowa	!	!	!	!	!
.	.	4B-/	.	.	.	.	.
1D	.	2A/	-nit	.	.	.	.
.	.	4G/	.	1f\	.	.	.
.	.	4F/	.	.	.	.	.
=95-	=95-	=95-	=95-	=95-	=95-	=95-	=95-
!LO:TX:t=P:problem=kreska pseudotaktowa	!	!	!	!	!	!	!
1C	.	1G	.	.	.	0ryy	.
.	.	.	.	2e\	.	.	.
!	!	!LO:TX:t=P:problem=kreska pseudotaktowa	!	!LO:TX:t=P:problem=kreska pseudotaktowa	!	!	!
2r	.	0.F	.	1f	.	.	.
2c\	in	.	.	.	.	.	.
=96-	=96-	=96-	=96-	=96-	=96-	=96-	=96-
*custos:c	*	*	*	*custos:f	*	*	*
2d\	no-	.	.	1r	.	0ryy	.
!LO:LB:g=original	!	!	!	!	!	!	!
!LO:TX:t=P:problem=kreska pseudotaktowa	!	!	!	!	!	!	!
2c\	-mi-	.	.	.	.	.	.
!	!	!	!	!LO:PB:g=original	!	!	!
4A\	-ne	.	.	1f	in	.	.
4G\	.	.	.	.	.	.	.
4A\	.	.	.	.	.	.	.
!LO:TX:t=P:problem=kreska pseudotaktowa	!	!	!	!	!	!	!
4B-\	.	.	.	.	.	.	.
=97-	=97-	=97-	=97-	=97-	=97-	=97-	=97-
2c\	.	1r	.	2e\	no-	0ryy	.
!LO:TX:t=P:problem=kreska pseudotaktowa	!	!	!	!LO:TX:t=P:problem=kreska pseudotaktowa	!	!	!
2B-\	.	.	.	2d\	-mi-	.	.
*	*	*custos:g	*	*	*	*	*
2A\	.	1f	in	2c\	-ne	.	.
2.B-\	do-	.	.	2.d/	do-	.	.
!	!	!LO:LB:g=original	!	!	!	!	!
=98-	=98-	=98-	=98-	=98-	=98-	=98-	=98-
.	.	1.g	no-	.	.	0ryy	.
4A\	-mi-	.	.	4c/	.	.	.
4G\	-ni;	.	.	4B-/	-mi-	.	.
!LO:TX:t=P:problem=kreska pseudotaktowa	!	!	!	!LO:TX:t=P:problem=kreska pseudotaktowa	!	!	!
4F\	.	.	.	4A/	.	.	.
2G\	.	.	.	2B-/	-ni;	.	.
!	!	!LO:TX:t=P:problem=kreska pseudotaktowa	!	!	!	!	!
1A\	.	2e\	-mi-	2c/	.	.	.
=99-	=99-	=99-	=99-	=99-	=99-	=99-	=99-
!	!	!	!	!LO:TX:t=P:problem=kreska pseudotaktowa	!	!	!
.	.	1f	-ne	1F	.	0ryy	.
4G\	.	.	.	.	.	.	.
4F\	.	.	.	.	.	.	.
!LO:TX:t=P:problem=kreska pseudotaktowa	!	!	!	!	!	!	!
1E	.	2.g\	.	2r	.	.	.
!	!	!	!	!LO:TX:t=P:problem=kreska pseudotaktowa	!	!	!
.	.	.	.	2G/	in	.	.
!	!	!LO:TX:t=P:problem=kreska pseudotaktowa	!	!	!	!	!
.	.	4f\	.	.	.	.	.
=100-	=100-	=100-	=100-	=100-	=100-	=100-	=100-
2r	.	2e\	.	2A/	no-	0ryy	.
!LO:TX:t=P:problem=kreska pseudotaktowa	!	!	!	!	!	!	!
*	*ij	*	*	*	*	*	*
2G\	in	2d\	.	2B-/	-mi-	.	.
!	!	!	!	!LO:TX:t=P:problem=kreska pseudotaktowa	!	!	!
2A\	no-	2c\	.	1c	-(n)e,	.	.
*custos:G	*	*	*	*	*	*	*
!	!	!LO:TX:t=P:problem=kreska pseudotaktowa	!	!	!	!	!
2F/	.	2f\	do-	.	.	.	.
!LO:LB:g=original	!	!	!	!	!	!	!
=101-	=101-	=101-	=101-	=101-	=101-	=101-	=101-
1G	-mi-	2e\	.	2r	.	0ryy	.
.	.	1d	-mi-	2G/	in	.	.
2D/	-ne	.	.	2.A/	no-	.	.
1F\	do-	4c/	-ni,	.	.	.	.
*	*	*	*	*custos:c	*	*	*
!	!	!	!	!LO:TX:t=P:problem=kreska pseudotaktowa	!	!	!
.	.	4B-/	.	4B-/	.	.	.
!	!	!	!	!LO:LB:g=original	!	!	!
=102-	=102-	=102-	=102-	=102-	=102-	=102-	=102-
!	!	!LO:TX:t=P:problem=kreska pseudotaktowa	!	!	!	!	!
.	.	1A	.	2c/	.	0ryy	.
!	!	!	!	!LO:TX:t=P:problem=kreska pseudotaktowa	!	!	!
4E/	-mi-	.	.	2d/	-mi-	.	.
!LO:TX:t=P:problem=kreska pseudotaktowa	!	!	!	!	!	!	!
4D/	.	.	.	.	.	.	.
!LO:TX:t=P:problem=kreska pseudotaktowa	!	!	!	!	!	!	!
1C	-ni	2r	.	1e	-ne	.	.
.	.	2G/	in	.	.	.	.
=103-	=103-	=103-	=103-	=103-	=103-	=103-	=103-
2r	.	2.A/	no-	2.f\	do-	0ryy	.
2F/	in	.	.	.	.	.	.
!	!	!LO:TX:t=P:problem=kreska pseudotaktowa	!	!	!	!	!
.	.	4B-/	-mi-	4g\	-mi-	.	.
2F/	no-	2c/	-ne	2a\	-ni;	.	.
!LO:TX:t=P:problem=kreska pseudotaktowa	!	!	!	!LO:TX:t=P:problem=kreska pseudotaktowa	!	!	!
2D/	-mi-	2.d\	do-	2f\	.	.	.
=104-	=104-	=104-	=104-	=104-	=104-	=104-	=104-
2E/	-ne	.	.	2g\	.	0ryy	.
.	.	4c\	.	.	.	.	.
2F/	do-	1c	-mi-	1a	.	.	.
1D	-mi-	.	.	.	.	.	.
*	*	*custos:c	*	*	*	*	*
!	!	!LO:TX:t=P:problem=kreska pseudotaktowa	!	!	!	!	!
.	.	2B-/	-ni	4g\	.	.	.
.	.	.	.	4f\	.	.	.
!	!	!LO:LB:g=original	!	!	!	!	!
=105-	=105-	=105-	=105-	=105-	=105-	=105-	=105-
!	!	!LO:TX:t=P:problem=kreska pseudotaktowa	!	!LO:TX:t=P:problem=kreska pseudotaktowa	!	!	!
2C/	-ni	1c	.	1e	.	0ryy	.
*	*Xij	*	*	*	*	*	*
1c	in	.	.	.	.	.	.
.	.	1r	.	2r	.	.	.
!LO:TX:t=P:problem=kreska pseudotaktowa	!	!	!	!	!	!	!
2B-\	.	.	.	2g\	in	.	.
=106-	=106-	=106-	=106-	=106-	=106-	=106-	=106-
2A\	no-	2r	.	1a	no-	0ryy	.
!LO:TX:t=P:problem=kreska pseudotaktowa	!	!LO:TX:t=P:problem=kreska pseudotaktowa	!	!	!	!	!
*	*	*	*ij	*	*	*	*
2F/	-mi-	2f\	in	.	.	.	.
!	!	!	!	!LO:TX:t=P:problem=kreska pseudotaktowa	!	!	!
2.G\	-ne	2e\	no-	1g	-mi-	.	.
.	.	2d\	-mi-	.	.	.	.
8F\L	do-	.	.	.	.	.	.
8G\J	.	.	.	.	.	.	.
=107-	=107-	=107-	=107-	=107-	=107-	=107-	=107-
*custos:G	*	*	*	*	*	*	*
2A\	-mi-	2c/	-ne	2e\	-ne	0ryy	.
!LO:LB:g=original	!	!	!	!	!	!	!
!LO:TX:t=P:problem=kreska pseudotaktowa	!	!LO:TX:t=P:problem=kreska pseudotaktowa	!	!	!	!	!
2G\	-ni	2d/	.	2.g\	do-	.	.
2C/	.	2.c/	do-	.	.	.	.
*	*	*	*	*custos:f	*	*	*
.	.	.	.	4e\	.	.	.
!	!	!	!	!LO:LB:g=original	!	!	!
1F\	.	.	.	1a\	.	.	.
.	.	4B-/	.	.	.	.	.
=108-	=108-	=108-	=108-	=108-	=108-	=108-	=108-
.	.	4A/	.	.	.	0ryy	.
.	.	4G/	.	.	.	.	.
!LO:TX:t=P:problem=kreska pseudotaktowa	!	!	!	!	!	!	!
2E-X/	.	2.B-/	.	2.g\	-mi-	.	.
1D	.	.	.	.	.	.	.
.	.	4A/	.	4f\	-ni;	.	.
.	.	4G/	.	1f\	.	.	.
.	.	4F/	.	.	.	.	.
=109-	=109-	=109-	=109-	=109-	=109-	=109-	=109-
1C	.	2G/	.	.	.	0ryy	.
!	!	!	!	!LO:TX:t=P:problem=kreska pseudotaktowa	!	!	!
.	.	2G/	-mi-	2e\	.	.	.
!LO:TX:t=P:problem=kreska pseudotaktowa	!	!LO:TX:t=P:problem=kreska pseudotaktowa	!	!LO:TX:t=P:problem=kreska pseudotaktowa	!	!	!
1F	.	0F	-ni	1f	.	.	.
*	*	*	*Xij	*	*	*	*
=110-	=110-	=110-	=110-	=110-	=110-	=110-	=110-
2r	.	.	.	2r	.	0ryy	.
1c	in	.	.	2f\	in	.	.
.	.	1r	.	2g\	.	.	.
!LO:TX:t=P:problem=kreska pseudotaktowa	!	!	!	!LO:TX:t=P:problem=kreska pseudotaktowa	!	!	!
2B-\	.	.	.	2g\	no-	.	.
=111-	=111-	=111-	=111-	=111-	=111-	=111-	=111-
2A\	no-	2r	.	1a	-mi-	0ryy	.
!	!	!LO:TX:t=P:problem=kreska pseudotaktowa	!	!	!	!	!
2F/	-mi-	2f\	in	.	.	.	.
!	!	!	!	!LO:TX:t=P:problem=kreska pseudotaktowa	!	!	!
2.G\	-ne	2e\	no-	1g	-ne	.	.
.	.	2d\	-mi-	.	.	.	.
8F\L	.	.	.	.	.	.	.
8G\J	.	.	.	.	.	.	.
=112-	=112-	=112-	=112-	=112-	=112-	=112-	=112-
*	*	*custos:d	*	*	*	*	*
2A\	do-	2c\	-(n)e	2e\	do(mini)	0ryy	.
!LO:LB:g=original	!	!	!	!	!	!	!
!LO:TX:t=P:problem=kreska pseudotaktowa	!	!LO:TX:t=P:problem=kreska pseudotaktowa	!	!	!	!	!
2G\	-mi-	2d\	do-	2.g\	.	.	.
2C/	-ni	2.c/	-mi-	.	.	.	.
.	.	.	.	4f\	.	.	.
*	*	*	*	*custos:g	*	*	*
1F\	.	.	.	1a\	.	.	.
.	.	4B-/	.	.	.	.	.
=113-	=113-	=113-	=113-	=113-	=113-	=113-	=113-
.	.	4A/	-ni	.	.	0ryy	.
.	.	4G/	.	.	.	.	.
!	!	!	!	!LO:LB:g=original	!	!	!
!	!	!	!	!LO:TX:t=P:problem=tekst pod nutami zaklejony	!	!	!
2E-X/	.	2.B-/	.	2.g\	.	.	.
1D	.	.	.	.	.	.	.
.	.	4A/	.	4f\	.	.	.
.	.	4G/	.	1f\	.	.	.
!	!	!LO:TX:t=P:problem=kreska pseudotaktowa	!	!	!	!	!
.	.	4F/	.	.	.	.	.
=114-	=114-	=114-	=114-	=114-	=114-	=114-	=114-
1C	.	2G/	.	.	.	0ryy	.
!	!	!	!	!LO:TX:t=P:problem=kreska pseudotaktowa	!	!	!
.	.	2G/	.	2e\	.	.	.
*custos:F	*	*	*	*custos:f	*	*	*
!	!	!LO:TX:b:t=O ſanna ut\nſupra	!	!	!	!	!
!LO:N:vis=00	!	!LO:N:vis=00	!	!LO:N:vis=00	!	!	!
1F;;	.	1F;	.	1f;<	.	.	.
==	==	==	==	==	==	==	==
*-	*-	*-	*-	*-	*-	*-	*-
!!!RDF**kern: < = below
!!!system-decoration: [(s1,s2,s3,s4)]
!!!ENC: Mateusz Solarz
!!!END: 2022-01-17
!!!ENC: Urszula Świątek
!!!END: 2022-01-25
